X:171
T:Hob or Nob THO1.171
T:Campbells Are Coming,aka. THO1.171, The
M:6/8
L:1/8
Z:vmp. Peter Dunk 2012.from a transcription by Fynn Titford-Mock 2006
B:Thompson's Compleat Collection of 200 Favourite Country Dances Vol.I,1758
Q:3/8=100
K:G
A|GBe dBG|B2 B B2 A|GBe dBG|ABA A2 B|\
GBe dBG|B2 d g2 a|bag fed|B2 B TB2:|
|:d|g2 g gab|d2 d d2 B|g2 g gab|e2 e e2 f|\
gfe gab|B2 d g2 a|bag fed|B2 B TB2:|

